X: 1
T: Mooncoin, The
M: 6/8
L: 1/8
R: jig
K: Amix
ed|:cBA AEA|AEA Bcd|cBA Ace|dBG Bcd|
|cBA AEA|AEA Bcd|Ace ~g3|dBG Bcd:|
|:cde efg|f/g/af ged|cde efg|f/g/aA Bcd|
cde efg|afd bge|afd gec|dBG Bcd:|
|:cBA Aaf|ecA Bcd|cBA ~g3|dBG Bcd|
|cBA Aaa|Agg Aff|Aee efg|dBG Bcd:|
